X: 30
T: Belle vueillez moy vengier
N: Derived from Duf3022-Belle_vueillez_moy_vengier.krn
C: Guillaume Du Fay
%%abc-version 2.0
%%abcx-abcm2ps-target-version 5.9.1 (29 Sep 2008)
%%abc-creator hum2abc beta
%%abcx-conversion-date 2019/02/16 20:31:47
%%abc-edited-by Jesse Rodin
%%abc-edited-by Planchart
%%abcx-initial-encoding-date 2016/04/15/
%%humdrum-veritas 1119502620
%%humdrum-veritas-data 3589644835
%%linebreak <none>
%%barnumbers 0
L: 1/4
M: 2/1
Q: 1/2=120
V: 1 clef=treble
V: 2 clef=treble-8
V: 3 clef=treble-8
K: Bb
[V:1] G8 | 
[V:2] G4E2F2 | 
[V:3] G6A2 | 
[V:1] G8 | 
[V:2] G4C4- | 
[V:3] B4c4- | 
[V:1] G6F2 | 
[V:2] C8 | 
[V:3] c2B2c4 | 
[V:1] E2D2D4 | 
[V:2] z4G4 | 
[V:3] G4B4 | 
[V:1] ^F6G2 | 
[V:2] D8- | 
[V:3] A4d4 | 
[V:1] A4B4- | 
[V:2] D4G4- | 
[V:3] d2c2d4 | 
[V:1] B2G2G4- | 
[V:2] G8 | 
[V:3] B6G2 | 
[V:1] G4^F4 | 
[V:2] D8 | 
[V:3] A8 | 
[V:1] G8 | 
[V:2] d4e2d2- | 
[V:3] G8- | 
[V:1] z4G4 | 
[V:2] d2B4G2- | 
[V:3] G8 | 
[V:1] E3CD2E2 | 
[V:2] G4G4- | 
[V:3] C4B,2C2- | 
[V:1] C4B,4 | 
[V:2] G4F2G2 | 
[V:3] C2E2D2E2 | 
[V:1] A,2D4B,2 | 
[V:2] D4z4 | 
[V:3] F4G2G2- | 
[V:1] A,4G,2B,2 | 
[V:2] D4E2G2 | 
[V:3] G2^F2G4 | 
[V:1] C2D2E3D | 
[V:2] FED2C4 | 
[V:3] A2B2c2G2- | 
[V:1] DCC4=B,2 | 
[V:2] C2G2F3=E | 
[V:3] G2E2D4 | 
[V:1] C6E2- | 
[V:2] G4c4 | 
[V:3] C8 | 
[V:1] E2D2C3B, | 
[V:2] G4C4 | 
[V:3] C4z2E2 | 
[V:1] D8 | 
[V:2] z8 | 
[V:3] D2G4F2 | 
[V:1] z2E2D2G2- | 
[V:2] C4A2B2 | 
[V:3] G4F2G2 | 
[V:1] G2^F2G4 | 
[V:2] c4d4 | 
[V:3] A4G2B2 | 
[V:1] F2G2A4 | 
[V:2] c4F4 | 
[V:3] A2B2c4- | 
[V:1] G2B2A2B2 | 
[V:2] C2G2F2G2 | 
[V:3] c2d6 | 
[V:1] c3BAGG2 | 
[V:2] A3Bc2C2 | 
[V:3] c4e4 | 
[V:1] F2G2_A2G2- | 
[V:2] D2E2F2G2 | 
[V:3] d2c4B2 | 
[V:1] G2FED3C | 
[V:2] C4G4 | 
[V:3] c2A2=B4 | 
[V:1] C12- | 
[V:2] C8 | 
[V:3] c8 | 
[V:1] C12 | 
[V:2] z8 | 
[V:3] z8 | 
[V:1] [M:3/1]z8 | 
[V:2] [M:3/1]C8E4- | 
[V:3] [M:3/1]G8c4 | 
[V:1] z8 | 
[V:2] E4D8 | 
[V:3] c8=B4 | 
[V:1] G8c4 | 
[V:2] C8c4- | 
[V:3] c8e4- | 
[V:1] c8=B4 | 
[V:2] c4G8 | 
[V:3] e4d8 | 
[V:1] c8B4 | 
[V:2] C12 | 
[V:3] c8G4 | 
[V:1] A4G8 | 
[V:2] C12 | 
[V:3] c8B4 | 
[V:1] F4G4B4 | 
[V:2] z4z4G4 | 
[V:3] A4G8 | 
[V:1] A4G6F2 | 
[V:2] D4E8 | 
[V:3] F4G4B4 | 
[V:1] F4E6D2 | 
[V:2] F4C4B4 | 
[V:3] A4G8 | 
[V:1] D8C4 | 
[V:2] A4G6F2 | 
[V:3] F4E8 | 
[V:1] D12- | 
[V:2] A12 | 
[V:3] D12 | 
[V:1] D12 | 
[V:2] B8A4 | 
[V:3] z4z4D4- | 
[V:1] z4z4D4- | 
[V:2] d8A4 | 
[V:3] D4G4F4 | 
[V:1] D4G4F4 | 
[V:2] =B8c4 | 
[V:3] G8A4 | 
[V:1] G8A4 | 
[V:2] d4e8 | 
[V:3] B4c6B2 | 
[V:1] B4c2B2A2G2 | 
[V:2] d12- | 
[V:3] G4F4B4- | 
[V:1] G8^F4 | 
[V:2] d4c6=B2 | 
[V:3] B4A8 | 
[V:1] G4D4F4- | 
[V:2] d4B4A4- | 
[V:3] G8D4 | 
[V:1] F2E2C4E4- | 
[V:2] A4A4G4- | 
[V:3] F6E2C4 | 
[V:1] E2F2G4D4 | 
[V:2] G4c4B4- | 
[V:3] E6F2G4 | 
[V:1] F6E2D2C2 | 
[V:2] B2A2A6G2 | 
[V:3] D4F8 | 
[V:1] C8=B,4 | 
[V:2] G4F6=E2 | 
[V:3] E4D8 | 
[V:1] C12 |]  
[V:2] G12 |]  
[V:3] C12 |]  



